X:1
T:Trafalgar -- Hornpipe
Z:Bob Puckette <bpuckette:msn.com> 2003-3-10
R:hornpipe
B:Cole's 1000 Fiddle Tunes
M:2/4
L:1/16
K:A
vAEAc ecea|fdfa ecAc|dBfe dcBA|GABc B2E2|
AEAc ecea|fefa ecAc|dfed cBAG|A2c2A2z2:|
|:vC"4"AGA c"4"AGA|F"4"AEA DACA|F"0"DF"0"A dcBA|
G"4"ABG E2E2|FDFA dcBA|GEGB edcB|Aagf edcB|A2c2A2z2:|
